X:477
T: JETZT GEH ICH MEINEN SCHLENDRIAN
N: E1734
O: Europa, Mitteleuropa, Deutschland, Rheinland
R: Scherz - Lied
M: 2/4
L: 1/16
K: G
D2 | G2B2e2d2 | d2A2A2
B2 | c2D2E2F2 | G4z2
D2 | G2B2e2d2 | d2A2A2
B2 | c2D2E2F2 | G4z2
B2 | c3Bc2c2 | B4z2
B2 | c2e2g2e2 | e4d2
B2 | d2c2c2c2 | B4
e4 | d2B2c2A2 | A4G2
B2 | d2c2c2c2 | B4
e4 | d2B2c2A2 | A4G2

@@@ Tune index: 5161
